X:1
T: The "Go as you please" Hornpipe
C:
R:Reel
Q: 232
K:Bb
M:4/4
L:1/8
|:dc|B4 Bd cB|c4 ce dc|Bd f=e gf dB|Af ag ((3fgf) ((3edc)|
B4 Bd cB|c4 ce dc|Bb fd ((3fgf) ((3edc)|B2 b2 B2:|
K:F
|:AB|c=B cA FA c_e|d^c dB GB dg|((3efg) ce gb ag|fa c'a fc AB|
c=B cA FA c_e|d^c dB GB dg|eb ge cB GE|((3FAB) ((3cde) f2:|
